src/img/heart.svg

<svg width="35" height="33" viewBox="0 0 35 33" fill="none" xmlns="http://www.w3.org/2000/svg">
<g clip-path="url(#clip0_323_62954)">
<path d="M18.8457 29.6139H16.1545V32.3051H18.8457V29.6139Z" fill="#3B2027"/>
<path d="M21.5366 26.9228H18.8455V29.6139H21.5366V26.9228Z" fill="#3B2027"/>
<path d="M18.8457 26.9228H16.1545V29.6139H18.8457V26.9228Z" fill="#AD2F45"/>
<path d="M16.1506 26.9228H13.4595V29.6139H16.1506V26.9228Z" fill="#3B2027"/>
<path d="M24.2278 24.2317H21.5366V26.9228H24.2278V24.2317Z" fill="#3B2027"/>
<path d="M21.5366 24.2317H18.8455V26.9228H21.5366V24.2317Z" fill="#AD2F45"/>
<path d="M18.8457 24.2317H16.1545V26.9228H18.8457V24.2317Z" fill="#AD2F45"/>
<path d="M16.1506 24.2317H13.4595V26.9228H16.1506V24.2317Z" fill="#AD2F45"/>
<path d="M13.4594 24.2317H10.7683V26.9228H13.4594V24.2317Z" fill="#3B2027"/>
<path d="M26.9228 21.5367H24.2317V24.2278H26.9228V21.5367Z" fill="#3B2027"/>
<path d="M24.2278 21.5367H21.5366V24.2278H24.2278V21.5367Z" fill="#AD2F45"/>
<path d="M21.5366 21.5367H18.8455V24.2278H21.5366V21.5367Z" fill="#AD2F45"/>
<path d="M18.8457 21.5367H16.1545V24.2278H18.8457V21.5367Z" fill="#AD2F45"/>
<path d="M16.1506 21.5367H13.4595V24.2278H16.1506V21.5367Z" fill="#AD2F45"/>
<path d="M13.4594 21.5367H10.7683V24.2278H13.4594V21.5367Z" fill="#AD2F45"/>
<path d="M10.7683 21.5367H8.07715V24.2278H10.7683V21.5367Z" fill="#3B2027"/>
<path d="M29.614 18.8456H26.9229V21.5367H29.614V18.8456Z" fill="#3B2027"/>
<path d="M26.9228 18.8456H24.2317V21.5367H26.9228V18.8456Z" fill="#AD2F45"/>
<path d="M24.2278 18.8456H21.5366V21.5367H24.2278V18.8456Z" fill="#AD2F45"/>
<path d="M21.5366 18.8456H18.8455V21.5367H21.5366V18.8456Z" fill="#AD2F45"/>
<path d="M18.8457 18.8456H16.1545V21.5367H18.8457V18.8456Z" fill="#AD2F45"/>
<path d="M16.1506 18.8456H13.4595V21.5367H16.1506V18.8456Z" fill="#AD2F45"/>
<path d="M13.4594 18.8456H10.7683V21.5367H13.4594V18.8456Z" fill="#AD2F45"/>
<path d="M10.7683 18.8456H8.07715V21.5367H10.7683V18.8456Z" fill="#AD2F45"/>
<path d="M8.07712 18.8456H5.38599V21.5367H8.07712V18.8456Z" fill="#3B2027"/>
<path d="M32.3052 16.1544H29.614V18.8456H32.3052V16.1544Z" fill="#3B2027"/>
<path d="M29.614 16.1544H26.9229V18.8456H29.614V16.1544Z" fill="#AD2F45"/>
<path d="M26.9228 16.1544H24.2317V18.8456H26.9228V16.1544Z" fill="#AD2F45"/>
<path d="M24.2278 16.1544H21.5366V18.8456H24.2278V16.1544Z" fill="#AD2F45"/>
<path d="M21.5366 16.1544H18.8455V18.8456H21.5366V16.1544Z" fill="#AD2F45"/>
<path d="M18.8457 16.1544H16.1545V18.8456H18.8457V16.1544Z" fill="#E64539"/>
<path d="M16.1506 16.1544H13.4595V18.8456H16.1506V16.1544Z" fill="#AD2F45"/>
<path d="M13.4594 16.1544H10.7683V18.8456H13.4594V16.1544Z" fill="#AD2F45"/>
<path d="M10.7683 16.1544H8.07715V18.8456H10.7683V16.1544Z" fill="#AD2F45"/>
<path d="M8.07712 16.1544H5.38599V18.8456H8.07712V16.1544Z" fill="#AD2F45"/>
<path d="M5.3823 16.1544H2.69116V18.8456H5.3823V16.1544Z" fill="#3B2027"/>
<path d="M35 13.4595H32.3088V16.1506H35V13.4595Z" fill="#3B2027"/>
<path d="M32.3052 13.4595H29.614V16.1506H32.3052V13.4595Z" fill="#AD2F45"/>
<path d="M29.614 13.4595H26.9229V16.1506H29.614V13.4595Z" fill="#AD2F45"/>
<path d="M26.9228 13.4595H24.2317V16.1506H26.9228V13.4595Z" fill="#AD2F45"/>
<path d="M24.2278 13.4595H21.5366V16.1506H24.2278V13.4595Z" fill="#E64539"/>
<path d="M21.5366 13.4595H18.8455V16.1506H21.5366V13.4595Z" fill="#E64539"/>
<path d="M18.8457 13.4595H16.1545V16.1506H18.8457V13.4595Z" fill="#E64539"/>
<path d="M16.1506 13.4595H13.4595V16.1506H16.1506V13.4595Z" fill="#E64539"/>
<path d="M13.4594 13.4595H10.7683V16.1506H13.4594V13.4595Z" fill="#E64539"/>
<path d="M10.7683 13.4595H8.07715V16.1506H10.7683V13.4595Z" fill="#AD2F45"/>
<path d="M8.07712 13.4595H5.38599V16.1506H8.07712V13.4595Z" fill="#AD2F45"/>
<path d="M5.3823 13.4595H2.69116V16.1506H5.3823V13.4595Z" fill="#AD2F45"/>
<path d="M2.69114 13.4595H0V16.1506H2.69114V13.4595Z" fill="#3B2027"/>
<path d="M35 10.7683H32.3088V13.4595H35V10.7683Z" fill="#3B2027"/>
<path d="M32.3052 10.7683H29.614V13.4595H32.3052V10.7683Z" fill="#AD2F45"/>
<path d="M29.614 10.7683H26.9229V13.4595H29.614V10.7683Z" fill="#AD2F45"/>
<path d="M26.9228 10.7683H24.2317V13.4595H26.9228V10.7683Z" fill="#E64539"/>
<path d="M24.2278 10.7683H21.5366V13.4595H24.2278V10.7683Z" fill="#E64539"/>
<path d="M21.5366 10.7683H18.8455V13.4595H21.5366V10.7683Z" fill="#E64539"/>
<path d="M18.8457 10.7683H16.1545V13.4595H18.8457V10.7683Z" fill="#E64539"/>
<path d="M16.1506 10.7683H13.4595V13.4595H16.1506V10.7683Z" fill="#E64539"/>
<path d="M13.4594 10.7683H10.7683V13.4595H13.4594V10.7683Z" fill="#E64539"/>
<path d="M10.7683 10.7683H8.07715V13.4595H10.7683V10.7683Z" fill="#E64539"/>
<path d="M8.07712 10.7683H5.38599V13.4595H8.07712V10.7683Z" fill="#AD2F45"/>
<path d="M5.3823 10.7683H2.69116V13.4595H5.3823V10.7683Z" fill="#AD2F45"/>
<path d="M2.69114 10.7683H0V13.4595H2.69114V10.7683Z" fill="#3B2027"/>
<path d="M35 8.07721H32.3088V10.7683H35V8.07721Z" fill="#3B2027"/>
<path d="M32.3052 8.07721H29.614V10.7683H32.3052V8.07721Z" fill="#AD2F45"/>
<path d="M29.614 8.07721H26.9229V10.7683H29.614V8.07721Z" fill="#E64539"/>
<path d="M26.9228 8.07721H24.2317V10.7683H26.9228V8.07721Z" fill="#E64539"/>
<path d="M24.2278 8.07721H21.5366V10.7683H24.2278V8.07721Z" fill="#E64539"/>
<path d="M21.5366 8.07721H18.8455V10.7683H21.5366V8.07721Z" fill="#E64539"/>
<path d="M18.8457 8.07721H16.1545V10.7683H18.8457V8.07721Z" fill="#AD2F45"/>
<path d="M16.1506 8.07721H13.4595V10.7683H16.1506V8.07721Z" fill="#E64539"/>
<path d="M13.4594 8.07721H10.7683V10.7683H13.4594V8.07721Z" fill="#E64539"/>
<path d="M10.7683 8.07721H8.07715V10.7683H10.7683V8.07721Z" fill="#E64539"/>
<path d="M8.07712 8.07721H5.38599V10.7683H8.07712V8.07721Z" fill="#E64539"/>
<path d="M5.3823 8.07721H2.69116V10.7683H5.3823V8.07721Z" fill="#AD2F45"/>
<path d="M2.69114 8.07721H0V10.7683H2.69114V8.07721Z" fill="#3B2027"/>
<path d="M35 5.38608H32.3088V8.07721H35V5.38608Z" fill="#3B2027"/>
<path d="M32.3052 5.38608H29.614V8.07721H32.3052V5.38608Z" fill="#AD2F45"/>
<path d="M29.614 5.38608H26.9229V8.07721H29.614V5.38608Z" fill="#AD2F45"/>
<path d="M26.9228 5.38608H24.2317V8.07721H26.9228V5.38608Z" fill="#E64539"/>
<path d="M24.2278 5.38608H21.5366V8.07721H24.2278V5.38608Z" fill="#E64539"/>
<path d="M21.5366 5.38608H18.8455V8.07721H21.5366V5.38608Z" fill="#AD2F45"/>
<path d="M18.8457 5.38608H16.1545V8.07721H18.8457V5.38608Z" fill="#3B2027"/>
<path d="M16.1506 5.38608H13.4595V8.07721H16.1506V5.38608Z" fill="#AD2F45"/>
<path d="M13.4594 5.38608H10.7683V8.07721H13.4594V5.38608Z" fill="#E64539"/>
<path d="M10.7683 5.38608H8.07715V8.07721H10.7683V5.38608Z" fill="#E64539"/>
<path d="M8.07712 5.38608H5.38599V8.07721H8.07712V5.38608Z" fill="#AD2F45"/>
<path d="M5.3823 5.38608H2.69116V8.07721H5.3823V5.38608Z" fill="#AD2F45"/>
<path d="M2.69114 5.38608H0V8.07721H2.69114V5.38608Z" fill="#3B2027"/>
<path d="M32.3052 2.69113H29.614V5.38227H32.3052V2.69113Z" fill="#3B2027"/>
<path d="M29.614 2.69113H26.9229V5.38227H29.614V2.69113Z" fill="#AD2F45"/>
<path d="M26.9228 2.69113H24.2317V5.38227H26.9228V2.69113Z" fill="#AD2F45"/>
<path d="M24.2278 2.69113H21.5366V5.38227H24.2278V2.69113Z" fill="#AD2F45"/>
<path d="M21.5366 2.69113H18.8455V5.38227H21.5366V2.69113Z" fill="#3B2027"/>
<path d="M16.1506 2.69113H13.4595V5.38227H16.1506V2.69113Z" fill="#3B2027"/>
<path d="M13.4594 2.69113H10.7683V5.38227H13.4594V2.69113Z" fill="#AD2F45"/>
<path d="M10.7683 2.69113H8.07715V5.38227H10.7683V2.69113Z" fill="#AD2F45"/>
<path d="M8.07712 2.69113H5.38599V5.38227H8.07712V2.69113Z" fill="#AD2F45"/>
<path d="M5.3823 2.69113H2.69116V5.38227H5.3823V2.69113Z" fill="#3B2027"/>
<path d="M29.614 0H26.9229V2.69114H29.614V0Z" fill="#3B2027"/>
<path d="M26.9228 0H24.2317V2.69114H26.9228V0Z" fill="#3B2027"/>
<path d="M24.2278 0H21.5366V2.69114H24.2278V0Z" fill="#3B2027"/>
<path d="M13.4594 0H10.7683V2.69114H13.4594V0Z" fill="#3B2027"/>
<path d="M10.7683 0H8.07715V2.69114H10.7683V0Z" fill="#3B2027"/>
<path d="M8.07712 0H5.38599V2.69114H8.07712V0Z" fill="#3B2027"/>
</g>
<defs>
<clipPath id="clip0_323_62954">
<rect width="35" height="32.3089" fill="white"/>
</clipPath>
</defs>
</svg>

<svg width="35" height="33" fill="none" xmlns="http://www.w3.org/2000/svg"><g clip-path="url(#clip0_323_62954)"><path d="M18.846 29.614h-2.692v2.691h2.692v-2.691zm2.691-2.691h-2.691v2.69h2.69v-2.69z" fill="#3B2027"/><path d="M18.846 26.923h-2.692v2.69h2.692v-2.69z" fill="#AD2F45"/><path d="M16.15 26.923h-2.69v2.69h2.69v-2.69zm8.078-2.691h-2.691v2.69h2.69v-2.69z" fill="#3B2027"/><path d="M21.537 24.232h-2.691v2.69h2.69v-2.69zm-2.691 0h-2.692v2.69h2.692v-2.69zm-2.696 0h-2.69v2.69h2.69v-2.69z" fill="#AD2F45"/><path d="M13.46 24.232h-2.692v2.69h2.691v-2.69zm13.463-2.695h-2.691v2.69h2.69v-2.69z" fill="#3B2027"/><path d="M24.228 21.537h-2.691v2.69h2.69v-2.69zm-2.691 0h-2.691v2.69h2.69v-2.69zm-2.691 0h-2.692v2.69h2.692v-2.69zm-2.696 0h-2.69v2.69h2.69v-2.69zm-2.69 0h-2.692v2.69h2.691v-2.69z" fill="#AD2F45"/><path d="M10.768 21.537h-2.69v2.69h2.69v-2.69zm18.846-2.691h-2.691v2.69h2.691v-2.69z" fill="#3B2027"/><path d="M26.923 18.846h-2.691v2.69h2.69v-2.69zm-2.695 0h-2.691v2.69h2.69v-2.69zm-2.691 0h-2.691v2.69h2.69v-2.69zm-2.691 0h-2.692v2.69h2.692v-2.69zm-2.696 0h-2.69v2.69h2.69v-2.69z" fill="#AD2F45"/><path d="M13.46 18.846h-2.692v2.69h2.691v-2.69zm-2.692 0h-2.69v2.69h2.69v-2.69z" fill="#AD2F45"/><path d="M8.077 18.846H5.386v2.69h2.691v-2.69zm24.228-2.692h-2.691v2.692h2.691v-2.692z" fill="#3B2027"/><path d="M29.614 16.154h-2.691v2.692h2.691v-2.692zm-2.691 0h-2.691v2.692h2.69v-2.692zm-2.695 0h-2.691v2.692h2.69v-2.692zm-2.691 0h-2.691v2.692h2.69v-2.692z" fill="#AD2F45"/><path d="M18.846 16.154h-2.692v2.692h2.692v-2.692z" fill="#E64539"/><path d="M16.15 16.154h-2.69v2.692h2.69v-2.692z" fill="#AD2F45"/><path d="M13.46 16.154h-2.692v2.692h2.691v-2.692zm-2.692 0h-2.69v2.692h2.69v-2.692zm-2.691 0H5.386v2.692h2.691v-2.692z" fill="#AD2F45"/><path d="M5.382 16.154h-2.69v2.692h2.69v-2.692zM35 13.46h-2.691v2.69H35v-2.69z" fill="#3B2027"/><path d="M32.305 13.46h-2.691v2.69h2.691v-2.69zm-2.691 0h-2.691v2.69h2.691v-2.69zm-2.691 0h-2.691v2.69h2.69v-2.69z" fill="#AD2F45"/><path d="M24.228 13.46h-2.691v2.69h2.69v-2.69zm-2.691 0h-2.691v2.69h2.69v-2.69zm-2.691 0h-2.692v2.69h2.692v-2.69zm-2.696 0h-2.69v2.69h2.69v-2.69zm-2.69 0h-2.692v2.69h2.691v-2.69z" fill="#E64539"/><path d="M10.768 13.46h-2.69v2.69h2.69v-2.69zm-2.691 0H5.386v2.69h2.691v-2.69zm-2.695 0h-2.69v2.69h2.69v-2.69z" fill="#AD2F45"/><path d="M2.691 13.46H0v2.69h2.691v-2.69zM35 10.768h-2.691v2.691H35v-2.69z" fill="#3B2027"/><path d="M32.305 10.768h-2.691v2.691h2.691v-2.69zm-2.691 0h-2.691v2.691h2.691v-2.69z" fill="#AD2F45"/><path d="M26.923 10.768h-2.691v2.691h2.69v-2.69zm-2.695 0h-2.691v2.691h2.69v-2.69zm-2.691 0h-2.691v2.691h2.69v-2.69zm-2.691 0h-2.692v2.691h2.692v-2.69zm-2.696 0h-2.69v2.691h2.69v-2.69z" fill="#E64539"/><path d="M13.46 10.768h-2.692v2.691h2.691v-2.69zm-2.692 0h-2.69v2.691h2.69v-2.69z" fill="#E64539"/><path d="M8.077 10.768H5.386v2.691h2.691v-2.69zm-2.695 0h-2.69v2.691h2.69v-2.69z" fill="#AD2F45"/><path d="M2.691 10.768H0v2.691h2.691v-2.69zM35 8.077h-2.691v2.691H35v-2.69z" fill="#3B2027"/><path d="M32.305 8.077h-2.691v2.691h2.691v-2.69z" fill="#AD2F45"/><path d="M29.614 8.077h-2.691v2.691h2.691v-2.69zm-2.691 0h-2.691v2.691h2.69v-2.69zm-2.695 0h-2.691v2.691h2.69v-2.69zm-2.691 0h-2.691v2.691h2.69v-2.69z" fill="#E64539"/><path d="M18.846 8.077h-2.692v2.691h2.692v-2.69z" fill="#AD2F45"/><path d="M16.15 8.077h-2.69v2.691h2.69v-2.69z" fill="#E64539"/><path d="M13.46 8.077h-2.692v2.691h2.691v-2.69zm-2.692 0h-2.69v2.691h2.69v-2.69zm-2.691 0H5.386v2.691h2.691v-2.69z" fill="#E64539"/><path d="M5.382 8.077h-2.69v2.691h2.69v-2.69z" fill="#AD2F45"/><path d="M2.691 8.077H0v2.691h2.691v-2.69zM35 5.386h-2.691v2.691H35v-2.69z" fill="#3B2027"/><path d="M32.305 5.386h-2.691v2.691h2.691v-2.69zm-2.691 0h-2.691v2.691h2.691v-2.69z" fill="#AD2F45"/><path d="M26.923 5.386h-2.691v2.691h2.69v-2.69zm-2.695 0h-2.691v2.691h2.69v-2.69z" fill="#E64539"/><path d="M21.537 5.386h-2.691v2.691h2.69v-2.69z" fill="#AD2F45"/><path d="M18.846 5.386h-2.692v2.691h2.692v-2.69z" fill="#3B2027"/><path d="M16.15 5.386h-2.69v2.691h2.69v-2.69z" fill="#AD2F45"/><path d="M13.46 5.386h-2.692v2.691h2.691v-2.69zm-2.692 0h-2.69v2.691h2.69v-2.69z" fill="#E64539"/><path d="M8.077 5.386H5.386v2.691h2.691v-2.69zm-2.695 0h-2.69v2.691h2.69v-2.69z" fill="#AD2F45"/><path d="M2.691 5.386H0v2.691h2.691v-2.69zm29.614-2.695h-2.691v2.691h2.691v-2.69z" fill="#3B2027"/><path d="M29.614 2.691h-2.691v2.691h2.691v-2.69zm-2.691 0h-2.691v2.691h2.69v-2.69zm-2.695 0h-2.691v2.691h2.69v-2.69z" fill="#AD2F45"/><path d="M21.537 2.691h-2.691v2.691h2.69v-2.69zm-5.387 0h-2.69v2.691h2.69v-2.69z" fill="#3B2027"/><path d="M13.46 2.691h-2.692v2.691h2.691v-2.69zm-2.692 0h-2.69v2.691h2.69v-2.69zm-2.691 0H5.386v2.691h2.691v-2.69z" fill="#AD2F45"/><path d="M5.382 2.691h-2.69v2.691h2.69v-2.69zM29.614 0h-2.691v2.691h2.691V0zm-2.691 0h-2.691v2.691h2.69V0zm-2.695 0h-2.691v2.691h2.69V0zM13.46 0h-2.692v2.691h2.691V0zm-2.692 0h-2.69v2.691h2.69V0zM8.077 0H5.386v2.691h2.691V0z" fill="#3B2027"/></g><defs><clipPath id="clip0_323_62954"><path fill="#fff" d="M0 0h35v32.309H0z"/></clipPath></defs></svg>
